X: 1
T: Yuma's Waltz
C: Amy Englesberg
R: waltz
S: Fiddle Hell Online 2021-05-31 workshop handout
Z: 2021 John Chambers <jc:trillian.mit.edu>
M: 3/4
L: 1/8
K: C
vCD \
| "C"EG ED CD | "F"A,4 (uCD) | "C"EG ED CD | "Dm"A2 G2 CD |\
| "C"EG ED CD | "F"A,4 (uCD) | "Am"E2 C2 E2 | "G"D4 :|
|: vCB, \
| "F"A,A AG AB | vc2 B2 A2 | "Em"B2 G3 A | G2 F2 E2 |\
| "F"FA,- A,B, CA, | F2 E2 D2 | "Am"E3 (F E2) | "G"D4 :|
